X:6
T:Cut the Brakes
C:Corwin Zekley
L:1/8
M:4/4
K:Emin
"Em" EBeg"^(D)" fedf |"Em" edBe"^(D)" dBAd |"Em" Bd d/d/d"^(D)" Ad"^(G)"Gd | %3
 d/d/d"^(D)" Fd"Bm" DE F/E/D |$"Em" EBeg"^(D)" fedf |"Em" edBe"^(D)" dBAG |"Em" FGdG"A" EF^cF |1 %7
"Bm" DE F/E/D"Em" E4 :|2"D" DE F/E/D E"Em"FGA ||$"G" B2 BA GABe |"D" dA A/A/A AGFD | %11
"Em" EB B/B/B FBGB | B/B/B Ad"Bm" Bedf |$"C" fgBc gBcg |"D" ^cdad bagf |1"Em" egfe dfed | %16
 BedB"D" AGA_B :|2$"Em" edBA"G" dBAG ||"B7" BAGF"Em" E4 |] %19

